svg/blobs-icons/no-decorations/chemistry.svg

<svg xmlns="http://www.w3.org/2000/svg" xmlns:xlink="http://www.w3.org/1999/xlink" preserveAspectRatio="xMidYMid" width="210" height="217" viewBox="0 0 210 217"><defs><style>.cls-3{fill:#0cb04a}.cls-4{fill:#fbb713}.cls-5{fill:#010101;opacity:.25}.cls-6{fill:#142a3b}.cls-10{fill:#ff3a2f}.cls-11{fill:#010101;opacity:.35}.cls-16{fill:#fff}</style></defs><g id="group-160svg"><path d="M33.691-.013s0 11.863.0 11.863S42.605 11.85 42.605 11.85s0 97.164.0 97.164S.349 210.703.349 210.703C-.221 212.079-.069 213.646.758 214.881 1.584 216.126 2.977 216.867 4.466 216.867H129.255C130.713 216.867 132.075 216.153 132.911 214.959 133.742 213.767 133.943 212.244 133.438 210.878L96.086 109.11s0-97.26.0-97.26 8.914.0 8.914.0S105-.013 105-.013s-71.309.0-71.309.0z" id="path-1" class="cls-3" fill-rule="evenodd"/><path d="M133.438 210.878S96.087 109.109 96.087 109.109 96.087 108.427 96.087 108.427s-53.482.0-53.482.0S42.605 109.014 42.605 109.014.349 210.705.349 210.705C-.221 212.079-.069 213.646.758 214.881 1.584 216.126 2.978 216.867 4.466 216.867H129.255C130.713 216.867 132.075 216.153 132.911 214.959 133.742 213.767 133.943 212.244 133.438 210.878z" id="path-2" class="cls-4" fill-rule="evenodd"/><path d="M133.438 210.878S96.087 109.109 96.087 109.109s0-97.259.0-97.259 8.913.0 8.913.0S105-.013 105-.013s-32.251.0-32.251.0.0 89.674.0 89.674S110.1 191.429 110.1 191.429C110.605 192.795 110.405 194.319 109.574 195.512 108.738 196.704 107.375 197.418 105.918 197.418H5.87S.349 210.705.349 210.705C-.221 212.079-.069 213.646.758 214.881 1.584 216.126 2.978 216.867 4.466 216.867H129.255C130.713 216.867 132.075 216.153 132.911 214.959 133.742 213.767 133.943 212.244 133.438 210.878z" id="path-3" class="cls-5" fill-rule="evenodd"/><path d="M91.062 60.033s-43.433.0-43.433.0c-1.996.0-3.615-1.618-3.615-3.614.0-1.996 1.619-3.615 3.615-3.615H91.062C93.058 52.804 94.677 54.423 94.677 56.419 94.677 58.415 93.058 60.033 91.062 60.033z" id="path-4" class="cls-6" fill-rule="evenodd"/><path d="M78.259 140.257s-17.827.0-17.827.0c-1.996.0-3.615-1.619-3.615-3.61500000000001S58.436 133.027 60.432 133.027H78.259c1.996.0 3.615 1.619 3.615 3.61500000000001S80.255 140.257 78.259 140.257z" id="path-5" class="cls-6" fill-rule="evenodd"/><path d="M78.259 158.085s-17.827.0-17.827.0c-1.996.0-3.615-1.62-3.615-3.61500000000001.0-1.99600000000001 1.619-3.614 3.615-3.614H78.259c1.996.0 3.615 1.618 3.615 3.614C81.874 156.465 80.255 158.085 78.259 158.085z" id="path-6" class="cls-6" fill-rule="evenodd"/><path d="M78.259 175.912s-17.827.0-17.827.0c-1.996.0-3.615-1.618-3.615-3.614S58.436 168.682 60.432 168.682H78.259c1.996.0 3.615 1.62 3.615 3.61600000000001s-1.619 3.614-3.615 3.614z" id="path-7" class="cls-6" fill-rule="evenodd"/><path d="M203.126 56.61C193.404 56.61 185.491 64.524 185.491 74.246L185.221 89.806s0 100.319.0 100.319c0 12.291-9.99700000000001 22.286-22.284 22.286-12.286.0-22.283-9.99500000000001-22.283-22.286V89.806S139.304 74.246 139.304 74.246C139.304 64.524 131.391 56.61 121.668 56.61h81.458z" id="path-8" class="cls-10" fill-rule="evenodd"/><path d="M180.548 56.612C176.484 59.845 173.823 64.772 173.823 70.356L173.552 85.915s0 100.319.0 100.319C173.552 198.527 163.555 208.52 151.269 208.52 150.948 208.52 150.635 208.486 150.316 208.472 153.908 210.95 158.253 212.41 162.937 212.41c12.287.0 22.284-9.994 22.284-22.285V89.806S185.491 74.246 185.491 74.246C185.491 64.524 193.404 56.612 203.126 56.612H180.548z" id="path-9" class="cls-11" fill-rule="evenodd"/><path d="M158.481 95.689S149.568 95.689 149.568 95.689C147.572 95.689 145.953 94.072 145.953 92.076 145.953 90.079 147.572 88.46 149.568 88.46H158.481c1.99600000000001.0 3.614 1.619 3.614 3.616.0 1.99600000000001-1.618 3.613-3.614 3.613z" id="path-10" class="cls-6" fill-rule="evenodd"/><path d="M158.481 113.516S149.568 113.516 149.568 113.516C147.572 113.516 145.953 111.897 145.953 109.9 145.953 107.904 147.572 106.286 149.568 106.286H158.481c1.99600000000001.0 3.614 1.618 3.614 3.614.0 1.997-1.618 3.616-3.614 3.616z" id="path-11" class="cls-6" fill-rule="evenodd"/><path d="M158.481 131.342S149.568 131.342 149.568 131.342C147.572 131.342 145.953 129.725 145.953 127.728S147.572 124.115 149.568 124.115H158.481c1.99600000000001.0 3.614 1.616 3.614 3.613S160.477 131.342 158.481 131.342z" id="path-12" class="cls-6" fill-rule="evenodd"/><path d="M191.649 2.936c-9.83099999999999.0-17.826 8-17.826 17.829.0 9.828 7.995 17.826 17.826 17.826C201.481 38.591 209.476 30.593 209.476 20.765c0-9.829-7.995-17.829-17.827-17.829z" id="path-13" class="cls-6" fill-rule="evenodd"/><path d="M195.539 9.908C191.697 9.908 188.573 13.035 188.573 16.875c0 3.841 3.124 6.966 6.96599999999998 6.966C199.381 23.841 202.505 20.716 202.505 16.875c0-3.84-3.124-6.967-6.96600000000001-6.967z" id="path-14" class="cls-16" fill-rule="evenodd"/><path d="M155.996 38.591C151.069 38.591 147.082 42.578 147.082 47.505S151.069 56.419 155.996 56.419C160.922 56.419 164.909 52.432 164.909 47.505S160.922 38.591 155.996 38.591z" id="path-15" class="cls-6" fill-rule="evenodd"/><path d="M162.4 209.129C162.211 209.129 162.019 209.113 161.825 209.082 148.348 206.925 143.932 195.933 143.48 190.42L143.468 162.608C143.468 160.611 145.086 158.994 147.082 158.994 149.078 158.994 150.697 160.611 150.697 162.608v27.517C150.785 190.864 151.994 200.187 162.969 201.945 164.938 202.258 166.281 204.113 165.965 206.085 165.681 207.862 164.145 209.129 162.4 209.129z" id="path-16" class="cls-16" fill-rule="evenodd"/><path d="M30.906 165.563C30.44 165.563 29.966 165.471 29.508 165.279 27.668 164.505 26.803 162.385 27.576 160.546l20.981-49.938s0-40.739.0-40.739c0-1.995 1.619-3.615 3.615-3.615C54.168 66.254 55.787 67.874 55.787 69.869v42.197s-21.547 51.28-21.547 51.28C33.659 164.73 32.318 165.563 30.906 165.563z" id="path-17" class="cls-16" fill-rule="evenodd"/></g></svg>

<svg xmlns="http://www.w3.org/2000/svg" xmlns:xlink="http://www.w3.org/1999/xlink" preserveAspectRatio="xMidYMid" width="210" height="217" viewBox="0 0 210 217">
  <defs>
    <style>

      .cls-3 {
        fill: #0cb04a;
      }

      .cls-4 {
        fill: #fbb713;
      }

      .cls-5 {
        fill: #010101;
        opacity: 0.25;
      }

      .cls-6 {
        fill: #142a3b;
      }

      .cls-10 {
        fill: #ff3a2f;
      }

      .cls-11 {
        fill: #010101;
        opacity: 0.35;
      }

      .cls-16 {
        fill: #ffffff;
      }
    </style>
  </defs>
  <g id="group-160svg">
    <path d="M33.691,-0.013 C33.691,-0.013 33.691,11.850 33.691,11.850 C33.691,11.850 42.605,11.850 42.605,11.850 C42.605,11.850 42.605,109.014 42.605,109.014 C42.605,109.014 0.349,210.703 0.349,210.703 C-0.221,212.079 -0.069,213.646 0.758,214.881 C1.584,216.126 2.977,216.867 4.466,216.867 C4.466,216.867 129.255,216.867 129.255,216.867 C130.713,216.867 132.075,216.153 132.911,214.959 C133.742,213.767 133.943,212.244 133.438,210.878 C133.438,210.878 96.086,109.110 96.086,109.110 C96.086,109.110 96.086,11.850 96.086,11.850 C96.086,11.850 105.000,11.850 105.000,11.850 C105.000,11.850 105.000,-0.013 105.000,-0.013 C105.000,-0.013 33.691,-0.013 33.691,-0.013 Z" id="path-1" class="cls-3" fill-rule="evenodd"/>
    <path d="M133.438,210.878 C133.438,210.878 96.087,109.109 96.087,109.109 C96.087,109.109 96.087,108.427 96.087,108.427 C96.087,108.427 42.605,108.427 42.605,108.427 C42.605,108.427 42.605,109.014 42.605,109.014 C42.605,109.014 0.349,210.705 0.349,210.705 C-0.221,212.079 -0.069,213.646 0.758,214.881 C1.584,216.126 2.978,216.867 4.466,216.867 C4.466,216.867 129.255,216.867 129.255,216.867 C130.713,216.867 132.075,216.153 132.911,214.959 C133.742,213.767 133.943,212.244 133.438,210.878 Z" id="path-2" class="cls-4" fill-rule="evenodd"/>
    <path d="M133.438,210.878 C133.438,210.878 96.087,109.109 96.087,109.109 C96.087,109.109 96.087,11.850 96.087,11.850 C96.087,11.850 105.000,11.850 105.000,11.850 C105.000,11.850 105.000,-0.013 105.000,-0.013 C105.000,-0.013 72.749,-0.013 72.749,-0.013 C72.749,-0.013 72.749,89.661 72.749,89.661 C72.749,89.661 110.100,191.429 110.100,191.429 C110.605,192.795 110.405,194.319 109.574,195.512 C108.738,196.704 107.375,197.418 105.918,197.418 C105.918,197.418 5.870,197.418 5.870,197.418 C5.870,197.418 0.349,210.705 0.349,210.705 C-0.221,212.079 -0.069,213.646 0.758,214.881 C1.584,216.126 2.978,216.867 4.466,216.867 C4.466,216.867 129.255,216.867 129.255,216.867 C130.713,216.867 132.075,216.153 132.911,214.959 C133.742,213.767 133.943,212.244 133.438,210.878 Z" id="path-3" class="cls-5" fill-rule="evenodd"/>
    <path d="M91.062,60.033 C91.062,60.033 47.629,60.033 47.629,60.033 C45.633,60.033 44.014,58.415 44.014,56.419 C44.014,54.423 45.633,52.804 47.629,52.804 C47.629,52.804 91.062,52.804 91.062,52.804 C93.058,52.804 94.677,54.423 94.677,56.419 C94.677,58.415 93.058,60.033 91.062,60.033 Z" id="path-4" class="cls-6" fill-rule="evenodd"/>
    <path d="M78.259,140.257 C78.259,140.257 60.432,140.257 60.432,140.257 C58.436,140.257 56.817,138.638 56.817,136.642 C56.817,134.646 58.436,133.027 60.432,133.027 C60.432,133.027 78.259,133.027 78.259,133.027 C80.255,133.027 81.874,134.646 81.874,136.642 C81.874,138.638 80.255,140.257 78.259,140.257 Z" id="path-5" class="cls-6" fill-rule="evenodd"/>
    <path d="M78.259,158.085 C78.259,158.085 60.432,158.085 60.432,158.085 C58.436,158.085 56.817,156.465 56.817,154.470 C56.817,152.474 58.436,150.856 60.432,150.856 C60.432,150.856 78.259,150.856 78.259,150.856 C80.255,150.856 81.874,152.474 81.874,154.470 C81.874,156.465 80.255,158.085 78.259,158.085 Z" id="path-6" class="cls-6" fill-rule="evenodd"/>
    <path d="M78.259,175.912 C78.259,175.912 60.432,175.912 60.432,175.912 C58.436,175.912 56.817,174.294 56.817,172.298 C56.817,170.302 58.436,168.682 60.432,168.682 C60.432,168.682 78.259,168.682 78.259,168.682 C80.255,168.682 81.874,170.302 81.874,172.298 C81.874,174.294 80.255,175.912 78.259,175.912 Z" id="path-7" class="cls-6" fill-rule="evenodd"/>
    <path d="M203.126,56.610 C193.404,56.610 185.491,64.524 185.491,74.246 C185.491,74.246 185.221,89.806 185.221,89.806 C185.221,89.806 185.221,190.125 185.221,190.125 C185.221,202.416 175.224,212.411 162.937,212.411 C150.651,212.411 140.654,202.416 140.654,190.125 C140.654,190.125 140.654,89.806 140.654,89.806 C140.654,89.806 139.304,74.246 139.304,74.246 C139.304,64.524 131.391,56.610 121.668,56.610 C121.668,56.610 203.126,56.610 203.126,56.610 Z" id="path-8" class="cls-10" fill-rule="evenodd"/>
    <path d="M180.548,56.612 C176.484,59.845 173.823,64.772 173.823,70.356 C173.823,70.356 173.552,85.915 173.552,85.915 C173.552,85.915 173.552,186.234 173.552,186.234 C173.552,198.527 163.555,208.520 151.269,208.520 C150.948,208.520 150.635,208.486 150.316,208.472 C153.908,210.950 158.253,212.410 162.937,212.410 C175.224,212.410 185.221,202.416 185.221,190.125 C185.221,190.125 185.221,89.806 185.221,89.806 C185.221,89.806 185.491,74.246 185.491,74.246 C185.491,64.524 193.404,56.612 203.126,56.612 C203.126,56.612 180.548,56.612 180.548,56.612 Z" id="path-9" class="cls-11" fill-rule="evenodd"/>
    <path d="M158.481,95.689 C158.481,95.689 149.568,95.689 149.568,95.689 C147.572,95.689 145.953,94.072 145.953,92.076 C145.953,90.079 147.572,88.460 149.568,88.460 C149.568,88.460 158.481,88.460 158.481,88.460 C160.477,88.460 162.095,90.079 162.095,92.076 C162.095,94.072 160.477,95.689 158.481,95.689 Z" id="path-10" class="cls-6" fill-rule="evenodd"/>
    <path d="M158.481,113.516 C158.481,113.516 149.568,113.516 149.568,113.516 C147.572,113.516 145.953,111.897 145.953,109.900 C145.953,107.904 147.572,106.286 149.568,106.286 C149.568,106.286 158.481,106.286 158.481,106.286 C160.477,106.286 162.095,107.904 162.095,109.900 C162.095,111.897 160.477,113.516 158.481,113.516 Z" id="path-11" class="cls-6" fill-rule="evenodd"/>
    <path d="M158.481,131.342 C158.481,131.342 149.568,131.342 149.568,131.342 C147.572,131.342 145.953,129.725 145.953,127.728 C145.953,125.731 147.572,124.115 149.568,124.115 C149.568,124.115 158.481,124.115 158.481,124.115 C160.477,124.115 162.095,125.731 162.095,127.728 C162.095,129.725 160.477,131.342 158.481,131.342 Z" id="path-12" class="cls-6" fill-rule="evenodd"/>
    <path d="M191.649,2.936 C181.818,2.936 173.823,10.936 173.823,20.765 C173.823,30.593 181.818,38.591 191.649,38.591 C201.481,38.591 209.476,30.593 209.476,20.765 C209.476,10.936 201.481,2.936 191.649,2.936 C191.649,2.936 191.649,2.936 191.649,2.936 Z" id="path-13" class="cls-6" fill-rule="evenodd"/>
    <path d="M195.539,9.908 C191.697,9.908 188.573,13.035 188.573,16.875 C188.573,20.716 191.697,23.841 195.539,23.841 C199.381,23.841 202.505,20.716 202.505,16.875 C202.505,13.035 199.381,9.908 195.539,9.908 C195.539,9.908 195.539,9.908 195.539,9.908 Z" id="path-14" class="cls-16" fill-rule="evenodd"/>
    <path d="M155.996,38.591 C151.069,38.591 147.082,42.578 147.082,47.505 C147.082,52.432 151.069,56.419 155.996,56.419 C160.922,56.419 164.909,52.432 164.909,47.505 C164.909,42.578 160.922,38.591 155.996,38.591 C155.996,38.591 155.996,38.591 155.996,38.591 Z" id="path-15" class="cls-6" fill-rule="evenodd"/>
    <path d="M162.400,209.129 C162.211,209.129 162.019,209.113 161.825,209.082 C148.348,206.925 143.932,195.933 143.480,190.420 C143.480,190.420 143.468,162.608 143.468,162.608 C143.468,160.611 145.086,158.994 147.082,158.994 C149.078,158.994 150.697,160.611 150.697,162.608 C150.697,162.608 150.697,190.125 150.697,190.125 C150.785,190.864 151.994,200.187 162.969,201.945 C164.938,202.258 166.281,204.113 165.965,206.085 C165.681,207.862 164.145,209.129 162.400,209.129 Z" id="path-16" class="cls-16" fill-rule="evenodd"/>
    <path d="M30.906,165.563 C30.440,165.563 29.966,165.471 29.508,165.279 C27.668,164.505 26.803,162.385 27.576,160.546 C27.576,160.546 48.557,110.608 48.557,110.608 C48.557,110.608 48.557,69.869 48.557,69.869 C48.557,67.874 50.176,66.254 52.172,66.254 C54.168,66.254 55.787,67.874 55.787,69.869 C55.787,69.869 55.787,112.066 55.787,112.066 C55.787,112.066 34.240,163.346 34.240,163.346 C33.659,164.730 32.318,165.563 30.906,165.563 Z" id="path-17" class="cls-16" fill-rule="evenodd"/>
  </g>
</svg>
